Breeze Round Dark/actions/24/distribute-vertical-page.svg

<!DOCTYPE svg>
<svg viewBox="0 0 24 24" version="1.1" xmlns="http://www.w3.org/2000/svg">
    <defs>
        <style type="text/css" id="current-color-scheme">
            .ColorScheme-Text {
                color:#eff0f1;
            }
        </style>
    </defs><g transform="translate(1,1)">
    <path class="ColorScheme-Text" style="fill:currentColor; fill-opacity:1; stroke:none" d="M 3 19 C 8.33333 19 13.6667 19 19 19 C 19 15 19 11 19 7 C 18.0006 5.66621 16.9999 4.33343 16 3 C 11.6667 3 7.33333 3 3 3 C 3 8.33333 3 13.6667 3 19 Z M 4 18 C 4 13.3333 4 8.66667 4 4 C 8 4 12 4 16 4 C 16 5 16 6 16 7 C 16.6667 7 17.3333 7 18 7 C 18 10.6667 18 14.3333 18 18 C 13.3333 18 8.66667 18 4 18 Z M 7 17 C 9.66667 17 12.3333 17 15 17 C 15 15.3333 15 13.6667 15 12 C 12.3333 12 9.66667 12 7 12 C 7 13.6667 7 15.3333 7 17 Z M 7 10 C 9.66667 10 12.3333 10 15 10 C 15 8.33333 15 6.66667 15 5 C 12.3333 5 9.66667 5 7 5 C 7 6.66667 7 8.33333 7 10 Z M 8 16 C 8 15 8 14 8 13 C 10 13 12 13 14 13 C 14 14 14 15 14 16 C 12 16 10 16 8 16 Z M 8 9 C 8 8 8 7 8 6 C 10 6 12 6 14 6 C 14 7 14 8 14 9 C 12 9 10 9 8 9 Z"/>
</g></svg>

<!DOCTYPE svg>
<svg xmlns="http://www.w3.org/2000/svg" viewBox="0 0 24 24" version="1.1" width="24" height="24">
  <defs>
    <style type="text/css" id="current-color-scheme">.ColorScheme-Text {color:#fcfcfc;}</style>
  </defs>
  <g transform="translate(1,1)">
    <path class="ColorScheme-Text" style="fill:currentColor; fill-opacity:1; stroke:none" d="m 3,16 c 0,3 3,3 3,3 h 10 c 0,0 3,0 3,-3 0,-3 0,-9 0,-9 C 18.0006,5.66621 16.9999,4.33343 16,3 H 6 C 6,3 3,3 3,6 3,9 3,13 3,16 Z m 1,0 C 4,14 4,8 4,6 4,4 6,4 6,4 h 10 v 3 h 2 c 0,0 0,7 0,9 0,2 -2,2 -2,2 H 6 c 0,0 -2,0 -2,-2 z m 3,1 h 8 V 12 H 7 Z m 0,-7 h 8 V 5 H 7 Z m 1,6 v -3 h 6 v 3 z M 8,9 V 6 h 6 v 3 z"/>
  </g>
</svg>
